icons/op-backlogs-24.svg

<svg width="24" height="24" viewBox="0 0 24 24" fill="none" xmlns="http://www.w3.org/2000/svg">
<path d="M20 16.6766L15.9843 14.383V15.5149H14.6353C14.8235 15.217 15.0118 14.9191 15.1373 14.5617C15.3569 14.0255 15.451 13.4894 15.3882 12.8936C15.3882 12.2085 15.2314 11.583 14.949 11.0468C14.6667 10.5404 14.3216 10.0936 13.851 9.6766C13.349 9.2 12.7529 8.90213 12.1255 8.69362C11.5608 8.51489 10.9961 8.45532 10.3686 8.48511C10.2745 8.36596 10.149 8.21702 10.0863 8.06809C10.0235 7.88936 9.99216 7.71064 9.99216 7.53191C9.99216 7.3234 10.0549 7.11489 10.149 6.93617C10.2118 6.75745 10.3059 6.6383 10.4627 6.48936C10.6196 6.34043 10.8078 6.22128 11.0275 6.1617C11.1843 6.10213 11.3725 6.07234 11.5922 6.07234C12.0314 6.10213 12.3765 6.22128 12.6902 6.51915C12.8471 6.69787 12.9725 6.84681 13.0353 7.02553L12.1255 7.35319L14.1333 8.21702L15.0431 6.37021L14.1333 6.66809C14.0078 6.34043 13.7882 6.04255 13.5373 5.77447C13.0039 5.26809 12.3451 5 11.5922 5C11.2471 5 10.9333 5.02979 10.6196 5.11915C10.2745 5.2383 9.92941 5.44681 9.64706 5.71489C9.39608 5.9234 9.20784 6.19149 9.08235 6.45957C8.92549 6.78723 8.83137 7.11489 8.86275 7.50213C8.83137 7.82979 8.89412 8.12766 9.01961 8.42553C9.05098 8.51489 9.08235 8.60426 9.1451 8.66383C8.29804 8.90213 7.5451 9.31915 6.91765 9.94468C6.41569 10.4511 6.07059 10.9872 5.85098 11.583L4.21961 11.0468L5.91373 14.3532L9.45882 12.7149L7.82745 12.1787C7.95294 11.8511 8.14118 11.5532 8.42353 11.2851C8.98824 10.7489 9.61569 10.4511 10.4 10.4213C10.7765 10.3915 11.1216 10.4511 11.4353 10.5404C11.8118 10.6596 12.1255 10.8681 12.4078 11.1064C12.7216 11.3745 12.9098 11.6128 13.0667 11.9106C13.2235 12.2085 13.3176 12.5957 13.3176 12.9532C13.349 13.3106 13.2863 13.6383 13.1922 13.9362C13.0353 14.2638 12.8157 14.5915 12.5647 14.8894C12.251 15.1872 11.9373 15.3957 11.5608 15.5447H4V17.8383H15.9843V19L20 16.6766Z" fill="black"/>
</svg>

<svg xmlns="http://www.w3.org/2000/svg" width="24" height="24" viewBox="0 0 24 24"><path d="m20 16.677-4.016-2.294v1.132h-1.349c.188-.298.377-.596.502-.953.22-.537.314-1.073.251-1.668 0-.685-.157-1.311-.439-1.847a5.079 5.079 0 0 0-1.098-1.37c-.502-.477-1.098-.775-1.725-.983a4.896 4.896 0 0 0-1.757-.209c-.095-.119-.22-.268-.283-.417a1.628 1.628 0 0 1-.094-.536c0-.209.063-.417.157-.596.063-.179.157-.298.314-.447a1.32 1.32 0 0 1 .564-.327c.157-.06.346-.09.565-.09.439.03.785.149 1.098.447.157.179.283.328.345.507l-.909.327 2.007.864.91-1.847-.91.298c-.125-.328-.345-.625-.596-.894A2.752 2.752 0 0 0 11.592 5c-.345 0-.659.03-.972.119a2.734 2.734 0 0 0-.973.596 2.16 2.16 0 0 0-.565.745c-.157.327-.251.655-.219 1.042-.032.328.031.626.157.924a.583.583 0 0 0 .125.238c-.847.238-1.6.655-2.227 1.281a4.513 4.513 0 0 0-1.067 1.638l-1.631-.536 1.694 3.306 3.545-1.638-1.632-.536a2.38 2.38 0 0 1 .597-.894c.564-.536 1.192-.834 1.976-.864.377-.029.722.03 1.035.119.377.12.691.328.973.566.314.268.502.507.659.805.156.298.251.685.251 1.042a2.51 2.51 0 0 1-.126.983 4.582 4.582 0 0 1-.627.953 3.05 3.05 0 0 1-1.004.656H4v2.293h11.984V19L20 16.677Z"/></svg>
